X: 21259
T: Keep The Fresh Beer Cold
R: jig
M: 6/8
K: Edorian
|:BEE BEE|dcB cBA|BEE EFG|FED FGA|
BEE BEE|dcB cBA|BEE ABA|GEE E2B:|
|:egb bag|agf def|e2b bag|fdd fgf|
e2b bag|agf def|gfe def|gee e2B:|

